X: 19478
T: Jackson's Morning Brush
R: jig
M: 6/8
K: Dmajor
D2F ~E3|DED DGF|DFA def|gfg ecA|
D2F ~E3|DED DGF|DFA d2e|1 fdd dAF:|2 fdd d2g||
|:fed faf|~g3 ~f3|fed faf|gfg efg|
fed faf|~g3 fed|BAB d2e|1 fee efg:|2 fdd dAF||

